Yosa-Max-Dark/places/16x16/folder-remote-symbolic.svg

<?xml version="1.0" encoding="UTF-8"?>
<svg id="svg6" version="1.1" viewBox="0 0 16 16" xmlns="http://www.w3.org/2000/svg">
 <defs id="defs3051">
  <style id="current-color-scheme" type="text/css">.ColorScheme-Text {
        color:#dfdfdf;
      }</style>
 </defs>
 <path id="path4" class="ColorScheme-Text" d="m8.015625 1.8164062c-2.8259015 0-5.50013 1.1329672-7.53125 3.1914063-0.38198268 0.3872224-0.39465993 1.0294655-0.02734375 1.4335937 0.36731545 0.4041035 0.97538765 0.4165251 1.3574218 0.0292969 1.6714772-1.694868 3.8737732-2.6269531 6.2011719-2.6269531 2.322922 0 4.525211 0.9326823 6.201172 2.6289062 0.186214 0.1878582 0.425372 0.2832032 0.664062 0.2832032 0.252123 0 0.504584-0.1050358 0.69336-0.3125 0.366629-0.4041217 0.353384-1.0463539-0.029297-1.4335938-2.034952-2.0591079-4.709158-3.1933594-7.529297-3.1933594zm0.0019531 3.3789063c-2.0471136 0-3.9717438 0.8363071-5.4179687 2.3554687-0.3764807 0.3946651-0.3776276 1.0369097-0.0039063 1.4335938 0.3737088 0.3966709 0.9817913 0.3985662 1.3574219 0.0039062 1.0846786-1.1386948 2.5260466-1.765625 4.0625-1.765625 1.5332575 0 2.975911 0.6281289 4.0625 1.7695313 0.186854 0.1966458 0.432646 0.2949219 0.677734 0.2949219 0.246371 0 0.494146-0.1008147 0.681641-0.2988282 0.373518-0.3973594 0.372371-1.0389286-0.003906-1.4335937-1.448781-1.5218611-3.372098-2.359375-5.4160159-2.359375zm-0.0019531 3.3789063c-1.2638424 0-2.472382 0.5648066-3.3183594 1.5507812-0.3564631 0.414248-0.3265053 1.055226 0.0664063 1.431641 0.3935563 0.377089 0.9996746 0.345297 1.3554687-0.070313 0.4901774-0.571035 1.1631335-0.884766 1.8964844-0.884766 0.7211952 0 1.4146959 0.322363 1.9003906 0.888672 0.1894164 0.220308 0.4498424 0.333985 0.7109374 0.333985 0.23037 0 0.459561-0.087295 0.642578-0.263672 0.392882-0.376414 0.424793-1.016707 0.06836-1.431641-0.84854-0.9879947-2.0603383-1.5546872-3.322266-1.5546872zm-0.1191406 3.3789062c-0.6403939 0-1.1601563 0.52051-1.1601563 1.162109 0 0.641607 0.5197624 1.160157 1.1601563 1.160157 0.6403896 0 1.1582031-0.51855 1.1582031-1.160157 0-0.641599-0.5178135-1.162109-1.1582031-1.162109z" style="fill:#dfdfdf"/>
</svg>

<?xml version="1.0" encoding="UTF-8" standalone="no"?>
<svg
   xmlns:dc="http://purl.org/dc/elements/1.1/"
   xmlns:cc="http://creativecommons.org/ns#"
   xmlns:rdf="http://www.w3.org/1999/02/22-rdf-syntax-ns#"
   xmlns:svg="http://www.w3.org/2000/svg"
   xmlns="http://www.w3.org/2000/svg"
   xmlns:sodipodi="http://sodipodi.sourceforge.net/DTD/sodipodi-0.dtd"
   xmlns:inkscape="http://www.inkscape.org/namespaces/inkscape"
   viewBox="0 0 16 16"
   version="1.1"
   id="svg6"
   sodipodi:docname="network-server.svg"
   inkscape:version="0.92.2 5c3e80d, 2017-08-06">
  <metadata
     id="metadata10">
    <rdf:RDF>
      <cc:Work
         rdf:about="">
        <dc:format>image/svg+xml</dc:format>
        <dc:type
           rdf:resource="http://purl.org/dc/dcmitype/StillImage" />
      </cc:Work>
    </rdf:RDF>
  </metadata>
  <sodipodi:namedview
     pagecolor="#ffffff"
     bordercolor="#666666"
     borderopacity="1"
     objecttolerance="10"
     gridtolerance="10"
     guidetolerance="10"
     inkscape:pageopacity="0"
     inkscape:pageshadow="2"
     inkscape:window-width="760"
     inkscape:window-height="480"
     id="namedview8"
     showgrid="false"
     inkscape:zoom="18.264648"
     inkscape:cx="0.66342298"
     inkscape:cy="8"
     inkscape:window-x="0"
     inkscape:window-y="0"
     inkscape:window-maximized="0"
     inkscape:current-layer="svg6" />
  <defs
     id="defs3051">
    <style
       type="text/css"
       id="current-color-scheme">
      .ColorScheme-Text {
        color:#dfdfdf;
      }
      </style>
  </defs>
  <path
     style="fill:#dfdfdf;fill-opacity:1;stroke:none"
     class="ColorScheme-Text"
     d="M 8.015625 1.8164062 C 5.1897235 1.8164062 2.515495 2.9493734 0.484375 5.0078125 C 0.10239232 5.3950349 0.089715068 6.037278 0.45703125 6.4414062 C 0.8243467 6.8455097 1.4324189 6.8579313 1.8144531 6.4707031 C 3.4859303 4.7758351 5.6882263 3.84375 8.015625 3.84375 C 10.338547 3.84375 12.540836 4.7764323 14.216797 6.4726562 C 14.403011 6.6605144 14.642169 6.7558594 14.880859 6.7558594 C 15.132982 6.7558594 15.385443 6.6508236 15.574219 6.4433594 C 15.940848 6.0392377 15.927603 5.3970055 15.544922 5.0097656 C 13.50997 2.9506577 10.835764 1.8164062 8.015625 1.8164062 z M 8.0175781 5.1953125 C 5.9704645 5.1953125 4.0458343 6.0316196 2.5996094 7.5507812 C 2.2231287 7.9454463 2.2219818 8.5876909 2.5957031 8.984375 C 2.9694119 9.3810459 3.5774944 9.3829412 3.953125 8.9882812 C 5.0378036 7.8495864 6.4791716 7.2226562 8.015625 7.2226562 C 9.5488825 7.2226562 10.991536 7.8507851 12.078125 8.9921875 C 12.264979 9.1888333 12.510771 9.2871094 12.755859 9.2871094 C 13.00223 9.2871094 13.250005 9.1862947 13.4375 8.9882812 C 13.811018 8.5909218 13.809871 7.9493526 13.433594 7.5546875 C 11.984813 6.0328264 10.061496 5.1953125 8.0175781 5.1953125 z M 8.015625 8.5742188 C 6.7517826 8.5742188 5.543243 9.1390254 4.6972656 10.125 C 4.3408025 10.539248 4.3707603 11.180226 4.7636719 11.556641 C 5.1572282 11.93373 5.7633465 11.901938 6.1191406 11.486328 C 6.609318 10.915293 7.2822741 10.601562 8.015625 10.601562 C 8.7368202 10.601562 9.4303209 10.923925 9.9160156 11.490234 C 10.105432 11.710542 10.365858 11.824219 10.626953 11.824219 C 10.857323 11.824219 11.086514 11.736924 11.269531 11.560547 C 11.662413 11.184133 11.694324 10.54384 11.337891 10.128906 C 10.489351 9.1409113 9.2775527 8.5742188 8.015625 8.5742188 z M 7.8964844 11.953125 C 7.2560905 11.953125 6.7363281 12.473635 6.7363281 13.115234 C 6.7363281 13.756841 7.2560905 14.275391 7.8964844 14.275391 C 8.536874 14.275391 9.0546875 13.756841 9.0546875 13.115234 C 9.0546875 12.473635 8.536874 11.953125 7.8964844 11.953125 z "
     id="path4" />
</svg>
